X:1
T:Wolvercote, 76.76 D
T:Wolvercote, 76.76 D
T:WIlliam Harold Ferguson, circa 1910
C:WIlliam Harold Ferguson, circa 1910
%%score ( 1 2 ) ( 3 4 )
L:1/8
Q:1/4=110
M:4/4
K:A
V:1 treble 
V:2 treble 
V:3 bass 
V:4 bass 
V:1
 [CE]2 | [CA]2 [Fd]2 c2 (Bc) x | [FA]2 F2 [B,E]2 (CD) | [A,E]2 c2 (BA) B2 | A6 E2 | %5
 [EA]2 d2 [^Ec]2 ([FB][Gc]) | [FA]2 F2 [B,E]2 ([A,C][B,=D]) | [B,E]2 [EF]2 (GA) [^DF]2 | %8
 E6 [B,E]2 | [E=c]2 [EB]2 [=CA]2 ([CE][D=F]) | =G3 A [=CG]2 (ED) | =C2 [E=c]2 [EB]2 [^DB]2 | %12
 B6 E2 | [A,A]2 d2 [Ac]2 (Bc) | [FA]2 F2 [B,E]2 (CD) | [A,E]2 c2 (BA) B2 | [CA]6 |] %17
V:2
 x2 | x4 (EF) G2 x | x2 (DC) x A,2 x | x2 (EF) B,2 (ED) | (C2 D2 C2) (CB,) | x2 (GF) x4 | %6
 x2 (^DC) x4 | x4 E2 x2 | (B,2 CA, B,2) x2 | x8 | D4 B,2 x2 | =C2 x6 | (E2 FGED) (CB,) | %13
 x2 (FG) x G2 x | x2 (DC) x A,2 x | x2 (EF) B,2 (ED) | x6 |] %17
V:3
 A,2 | A,3 z G, A,2 (DE) | [F,C]2 (B,A,) [E,G,]2 [F,A,]2 | [C,A,]2 A,2 [E,A,]2 [E,G,]2 | %4
 A,6 [D,G,]2 | [C,A,]2 (B,A,) [C,G,]2 ([^D,F,][^E,C]) | [F,C]2 (B,A,) [E,G,]2 (A,F,) | %7
 [G,,E,]2 [A,,C]2 (B,C) [B,,A,]2 | (G,2 A,F, G,2) G,2 | [=C,=G,]2 [E,G,]2 [=F,A,]2 [A,=C]2 | %10
 [=G,=C]2 [=F,B,]2 [E,C]2 (G,F,) | E,2 z [B,,G,]2 [B,,F,]2 x | (G,2 A,B,G,F,) [E,G,]2 | %13
 [F,C]2 [B,,B,]2 ([C,E][D,F]) [E,B,]2 | [F,C]2 (B,A,) [E,G,]2 [F,A,]2 | %15
 [C,A,]2 A,2 [E,A,]2 [E,G,]2 | [A,,E,]6 |] %17
V:4
 (A,G,) | F,2 (B,,2 C,D,) E,2 x | x2 B,,2 x4 | x2 (C,D,) x4 | (A,,2 F,2 E,2) x2 | x2 B,,2 x4 | %6
 x2 B,,2 x A,,2 x | x4 B,,2 x2 | E,6 (E,D,) | x8 | x6 =G,,2 | A,,3 (A,2 F,,) x2 | E,6 x2 | x8 | %14
 x2 B,,2 x4 | x2 (C,D,) x4 | x6 |] %17

